images/author.svg

<svg viewBox="0 0 24 24" fill="none" xmlns="http://www.w3.org/2000/svg"><path fill-rule="evenodd" clip-rule="evenodd" d="M12 4C9.79 4 8 5.79 8 8s1.79 4 4 4 4-1.79 4-4-1.79-4-4-4zm2 4c0-1.1-.9-2-2-2s-2 .9-2 2 .9 2 2 2 2-.9 2-2zm4 9c-.2-.71-3.3-2-6-2s-5.8 1.29-6 2.01V18h12v-1zM4 17c0-2.66 5.33-4 8-4s8 1.34 8 4v3H4v-3z" fill="#333"/></svg>

<svg viewBox="0 0 24 24" fill="none" xmlns="http://www.w3.org/2000/svg">
<path fill-rule="evenodd" clip-rule="evenodd" d="M12 4C9.79 4 8 5.79 8 8C8 10.21 9.79 12 12 12C14.21 12 16 10.21 16 8C16 5.79 14.21 4 12 4ZM14 8C14 6.9 13.1 6 12 6C10.9 6 10 6.9 10 8C10 9.1 10.9 10 12 10C13.1 10 14 9.1 14 8ZM18 17C17.8 16.29 14.7 15 12 15C9.3 15 6.2 16.29 6 17.01V18H18V17ZM4 17C4 14.34 9.33 13 12 13C14.67 13 20 14.34 20 17V20H4V17Z" fill="#333333"/>
</svg>
